X: 1
T: Lassies of Dunse
R: jig
Z: 1997 by John Chambers <jc:trillian.mit.edu>
N: Hardie #292
M: 6/8
L: 1/8
K: D
   f/g/ \
| "D"afd "A7"ecA | "D"d2A A2=c | "G"BGB "D"AGF | "Em"E3-y "A7"E2f/g/ \
| "D"afd "A7"ecA | "D"d2A A2G | "G"FDF "A7"ECE | "D"D3- D2 :|
|: F/G/ \
| "D"AFA "G"BGB | "D"AFA d2A | "G"BGB "D"AGF | "Em"E3-y "A7"E2f/g/ \
| "D"afa "A7"geg | "Bm"fdf "A7"ecA | "G"BdB "A7"cec | "D"d3- d2 :|
